X:1
T:The Well-Tempered Clavier Book I - XII
T:BWV 857    (A = 415 Hz)
T:J. S. Bach
%%score { ( 1 2 5 ) | ( 3 4 6 ) }
L:1/8
Q:1/4=96
M:4/4
K:Ab
V:1 treble 
V:2 treble 
V:5 treble 
V:3 bass 
V:4 bass 
V:6 bass 
V:1
"^Andante""^Praeludium" F/A/c/f/ G/f/=e/g/ A/c/f/e/ f2 | %1
 d2- d/d/c/B/ A>B c/4B/4c/4B/4c/4B/4A/4B/4 | c2 z/ d/G/B/ =E>F G/4F/4G/4F/4G/4F/4E/4F/4 | %3
 G/c/B/d/- d/d/c/B/ =A>B c/4B/4c/4B/4c/4B/4A/4B/4 | c4- c/c/B/d/ =G B/4A/4B/4A/4 | %5
 B4- B/A/c- c/B/d- | d/c/e- e/d/f- f/e/d/c/ B/G/A/d/ | %7
 c/4B/4c/4B/4c/4B/4c/4B/4 c/4B/4E/F/G/ A/G/A/f/ e>d | c/A/c/=e/ f/g/e/f/ g4- | %9
 g/c/f/a/ =d/f/=B/c/ c/4B/4c/4B/4c/4B/4c/ d/4c/4d/4c/4d/4c/4B/4c/4 | %10
 =d/g/f/a/- a/a/g/f/ z/ c'=b/ c'2 | e2 e/c/=d c4 | F/=A/c/e/ e/_g/c/e/ d3 c- | %13
 c/B/G/=E/ C/E/F/=B/ z/ F/=E/G/ _B/d/c/B/ | =A/F/A/c/ f>e d2- d/cB/- | %15
 B/d/c A>G F/A/c/f/- f/f/=e/g/ | A/c/f/=e/ f2 d2- d/d/c/B/ | A2- A/A/G/F/ =E4 | %18
 z/ c/B/d/ =E/d/c/B/ A/g/f/a/ =B/a/g/f/ | =e/f/g/e/ b/d/c/B/ A/B/c/F/ =d/A/G/F/ | %20
 =E2 F4 z/ _B,/C/E/ | !fermata!F8 |[M:4/4]"^Fuga" z8 | z8 | z8 | z2 F2 A2 G2 | ^F2 =B2 c2 =F2 | %27
 =E2 ^D2 =D4 | CC/=D/ =ED/E/ F/[I:staff +1]=E,/F,/G,/ A,2 |[I:staff -1] =DE/F/ G/F/=E/D/ C2 _D2 | %30
 z/ C/=D/=E/ F2- FE/D/ F2 | FF/G/ AA/B/ c2- c/B/A/G/ | F2 z2 z A,/B,/ C2- | CB,/C/ DD/E/ F4- | %34
 F=E/F/ c2 d2 c2 | =B2 =e2 f2 _B2 | =A2 _A2 G4- | GF/G/ A6- | AG/A/ B6- | BA/c/ f6- | %40
 fe=dg- g/=B/c/d/ e2 | z/ c/=d/e/ f2 z/ e/f/g/ a2 | z/ g/=a/=b/ c'2- c'b/a/ b2 | %43
 c'g c'2- c'c'/b/ =aa/g/ | fg/=a/ b2 z b/_a/ gg/f/ | ef/g/ a2 z a/g/ ff/e/ | d3 e/d/ cc/B/ A2- | %47
 AB/c/ d2- d/c/d/B/ g2- | g/c/d/c/ f2- f=e/f/ g2- | g f2 e =de/f/ g/f/=e/d/ | %50
 c2 z/ B/A/G/ F2 z/ F/G/A/ | B3 A/G/ A2 z2 | z _g/f/ e/d/c/B/ AB/c/ d z | %53
 z e/d/ c/B/A/_G/ F=G/=A/ B z | z c/B/ A/G/F/E/ D2- D/F/B/A/ | G2 A2- A/G/A/B/ c2 | %56
 z/ A/B/c/ d2 z/ c/d/e/ f2 | z/ e/f/g/ a2- ag/f/ g2- | g/c/=d/e/ f2- fe/d/ e2- | %59
 e/A/B/c/ d2- dc/B/ c2- | cFBA G2- G/G/A/B/ | c2- c/c/=d/e/ f2- f/B/e- | %62
 e/e/=d/c/ d/e/c/d/ e/c/d/e/ f/e/d/c/ | B4- B/A/G/F/ E2- | E/E/F/E/ =D/c/B/A/ GB e2- | %65
 e/g/f/e/ =d2- dG c2- | c/e/=d/c/ B2- BE A2- | A/c/B/A/ G2- G/F/A/G/ F/E/=D/C/ | =B,2 g2 a2 g2 | %69
 ^f2 =b2 c'2 =f2 | =e2 _e2 =d4- | dc/=d/ e6- | e=d/e/ f6- | f=e/g/ B6- | BA G2 F/=E/F/G/ A2 | %75
 z/ F/G/A/ B2 z/ A/B/c/ d2 | z/ c/=d/=e/ f2- fe/d/ e2 | f2- f/e/d/c/ d2- d/B/c/d/ | %78
 =Ec- c/G/A/F/- F/F/E/=D/ F/4E/4F/4E/4F/4E/4F/4E/4 | !fermata!F8 |] %80
V:2
 F2 G2 A2 f/c/A/F/ | d/A/G/B/ =E2 F z z2 | c/A/=E/F/ D2 C z z2 | x8 | z/ F/E/_G/- G/G/F/E/ D4- | %5
 D/C/D/F/- F/F/E/D/ C2 D2 | E2 F2 G z z2 | z4 z2 z/ A/G | x8 | x8 | =d2 =B2 ee z/ g/a/g/ | %11
 e/=B/c/^F/ G>=F- F/F/=E/G/ C2 | F2 =A2 z B =E2 | F z z F c2 z2 | z2 f/B/=A z/ _A/G/B/ =EF | %15
 =E>F- F/F/E F2 G2 | A2 f/c/B/A/ d/A/G/A/ =E2 | F/E/=D/F/ =B,2 z/ C/_B,/_D/ G,/D/C/B,/ | %18
[I:staff +1] A,2 B,2 C2 A,2 | B,2 G,2 C2 =B,2 |[I:staff -1] z/ C/G,/B,/ A,2 z/ =D/=B,/C/ G,2 | %21
 [G,C]8 |[M:4/4] x8 | x8 | x8 | x8 | x8 | x8 | x8 | x8 | x8 | A,2 z2 z C/D/ E2- | %32
 ED/E/ FF/G/ A2- A/_G/F/E/ | D2 z2 z F,/G,/ A,A,/B,/ | z2 G2- G F-F _E | %35
 =DE/F/ G/F/=E/D/ C z z B, | C2 z C DC/B,/ C2- | C2 z2 z4 | %38
 B,[I:staff +1]B,/A,/ G,2[I:staff -1] z G/F/ =EE/=D/ | %39
 C[I:staff +1]C/B,/ A,2[I:staff -1] z =d/c/ =BB/=A/ | GG/=A/ =BA/B/ c2- c_B | %41
 =A=B/c/ =d/c/B/A/ G2 z/ F/E/=D/ | C2 z/ c/=d/e/ f3 e/d/ | ec/=d/ e6- | eB/c/ d6- | dA/B/ c6- | %46
 cB/A/ G4- GF/=E/ | F3 G/A/ B2- B/A/B/G/ | A2- A/G/A/F/ cGcB | %49
 AB c/[I:staff +1]C/=D/[I:staff -1]E/ F2 z G | A2 z/ B3/2 c2 z c | dc/B/ c2- c2 z2 | x8 | x8 | x8 | %55
 z2 E2 F2 E2 | =D2 G2 A2 _D2 | C2 _C2 B,4 | A,2 z/ =B/c/=d/ G3 _G | F2- F/G/A/B/ E2- E/_G/F/E/ | %60
 D4- D/B,/C/D/ E2- | E/E/F/G/ A2- A/c/B/A/ G>G | F4 C z z2 | z/ C/=D/E/ F/E/D/C/ B,2- B,=A,/B,/ | %64
 C2 B,2- B,E/F/ GG/A/ | B2- B/A/G/F/ E/=D/C/D/ EE/F/ | G2- G/F/E/D/ C/B,/A,/B,/ CC/=D/ | %67
 E2- E/=D/C/B,/ A,[I:staff +1]=D,/E,/ F,F, | G,G,/=A,/ =B,B,/C/[I:staff -1] z c- cB | %69
 =AB/c/ =d/c/=B/A/ G2 _A2 | z/ G/=A/=B/ c2- cB/A/ B/c/B/=d/ | G2 z G Cc/B/ =AB/c/ | %72
 FB z A G=d/c/ =Bc/d/ | G2 z D CG/F/ =EF/G/ | CF- F=E F2 z/ G/F/_E/ | =D2 z _D- DC z _G- | %76
 GF z/ F/=G/A/ B4- | B/d/c/B/ =A2 z/ c/B/_A/ G/F/E/D/ | C8 | C8 |] %80
V:3
 A,2 B,2 C2 A,2 | B,2 G,2 F,/A,/C/F/ G,/F/=E/G/ | A, z B,2 C,/=E,/G,/C/ D,/C/B,/D/ | %3
 =E,G, C2 F,,/=A,,/C,/F,/ _G,,/F,/_E,/_G,/ | =A,,C, A,,2 B,,2- B,,/B,,/C,/D,/ | %5
 G,,B,,G, z A,,/C,/E,/A,/ B,,/A,/G,/B,/ | C,/E,/A,/C/ D,/C/B,/D/ E,/G,/B,/E/ F,/E/D/F/ | %7
 G,/F/E/D/ C4 C/4B,/4C/4B,/4C/4B,/4C/4B,/4 | A,2- A,/ z/ z =E,/G,/B,/D/ C,/F,/E,/G,/ | %9
 A,4 G,/=B,/=D/G/ A,/G/F/A/ | =B,=D G2 C4- | C3 =B, CG,- G,/F,/=E,/G,/ | %12
 z F,2 F, B,,/D,/F,/B,/- B,/B,/A,/C/ | F,G, A,2 G,4 | F, z z2 B,2 G,2 | z/ G,/A,/=B,/ C4 _B,2 | %16
 C2 A,2 B,2 G,2 | A,2 F,2 G,2 =E,2 | F,2 G,2 A,2 F,2 | G,2 =E,2 F,4 | G,2 z/ F,/=B,,/=D,/ C,,4 | %21
 F,8 |[M:4/4] z2[I:staff -1] C2 D2 C2 | =B,2 =E2 F2[I:staff +1] _B,2 | =A,2 _A,2 G,4 | %25
 F,F,/G,/ A,A,/B,/ C/=B,,/C,/=D,/ E,2 | z/ C,/=D,/E,/ F,2 z/ E,/F,/G,/ A,2 | %27
 z/ G,/=A,/=B,/ C2- CB,/A,/ C/4B,/4C/4B,/4C/4B,/4C/4B,/4 | %28
[I:staff -1] C[I:staff +1]G,CB, A,[I:staff -1] F2 E | %29
[I:staff +1] z/ F,/G,/A,/ B,2 z/[I:staff -1] A,/B,/C/[I:staff +1] z/[I:staff -1] B,/A,/G,/ | %30
[I:staff +1] F,2 z/ F,/[I:staff -1]G,/A,/ B,3 A,/G,/ |[I:staff +1] F,,2 z F,/G,/ A,A,/B,/ CC, | %32
 D,2 z D,/E,/ F,F,/G,/ A,A,, | B,,2 z B,,/C,/ D,D,/E,/ F,F,, | %34
[I:staff -1] C[I:staff +1]G,CB, A,/ z2 C,/=D,/_E,/ | F,2 z G, A, z z/ B,/A,/G,/ | %36
 F,2 z/ F,/G,/A,/ B,3 A,/G,/ | A,2 z2 z[I:staff -1] F/E/ DD/C/ | %38
[I:staff +1] E,2 z G,/F,/ =E,E,/=D,/ C,D,/E,/ | F,2 z =D,/C,/ =B,,B,,/=A,,/ G,,A,,/B,,/ | %40
 z2 G,2 A,2 G,2 | ^F,2 =B,2 C2 =F,2 | =E,2 _E,2 =D,4 | C,2 z[K:treble] c/B/ =AA/G/ FG/A/ | %44
 BB, z B/A/ GG/F/ EF/G/ | AA, z A/G/ FF/E/ DD/C/ |[K:bass] B,C/D/ EE, A,B,/C/ D2- | %47
 DD/C/ B,B,/A,/ G,G,/F,/ =E,C, | F,F/E/ E/4D/4E/4D/4E/4D/4E/4D/4 CC,/=D,/ =E,D,/E,/ | %49
 F,/=E,/F,/G,/ A,2 z/ F,/G,/A,/ B,2 | z/ A,/B,/C/ D2 z/ C/=D/=E/ F2- | F=E/=D/ F2 F2 z C/_D/ | %52
 EE/F/[I:staff -1] _G2- GF/E/ D[I:staff +1]A,/B,/ | CC/D/ E2- ED/C/ B,F,/=G,/ | %54
 A,-A,/B,/ C2- CB,/C/ D2- | DE/D/ CD/C/ B,3 A,/G,/ | A,G,/A,/ B,/A,/G,/F,/ E,A,- A,/G,/A,/B,/ | %57
 C2 z/ F,/G,/A,/ E,2 z/ G,/F,/=E,/ | F,2 z2 z4 | %59
 D,D,/C,/ B,,B,,/A,,/ G,,/E,,/F,,/G,,/ A,,/F,,/G,,/=A,,/ | %60
 B,,/=A,,/B,,/C,/ D,/B,,/C,/D,/ E,E,/D,/ C,C,/B,,/ | z4 z2 B,2 | C2 B,2 =A,2 =D2 | %63
 E2 A,2 G,2 _G,2 | F,4 E,2 z2 | z B,/C/ =D/C/B,/A,/ G,2 z2 | z G,/A,/ B,/A,/G,/F,/ E,2 z2 | %67
 z E,/F,/ G,/F,/E,/=D,/ C,=B,, C,2 | =D, z z2 C/=B,/C/=D/ E2 | %69
 z/ C/=D/E/ F2- F/E/F/G/ z/ G,/A,/B,/ | C2 z/ C/=D/E/ F/D/E/F/ G/A/G/F/ | %71
 E/F/E/=D/ CC/B,/ =A,A,/G,/ F,G,/A,/ | B,F/E/ =DD/C/ =B,B,/=A,/ G,A,/B,/ | %73
 CB,/A,/ G,G,/F,/ =E,E,/=D,/ C,D,/E,/ | F,/G,/A,/B,/ C2- CB, z A,- | %75
 A,G,/F,/ G,/B,/A,/G,/ F,G,/A,/ B,/F,/_E,/D,/ | C,2- C,/=D,/=E,/F,/ G,2- G,/=A,,/B,,/C,/ | %77
 D,/C,/D,/E,/ F,2- F,/F,/G,/A,/ B,2- | %78
 B,/B,/A,/G,/ A,2 A,/4G,/4A,/4G,/4A,/4G,/4A,/4G,/4 A,/4G,/4A,/4G,/4A,/4G,/4A,/4G,/4 | %79
[I:staff -1] =A,8 |] %80
V:4
 F,2 z2 z4 | F,4 F,2 G,2 | A,2 z2 C,2 D,2 | =E,2 CC, F,,2 _G,,2 | =A,,2 _A,,F,, z4 | %5
 z2 G,E,, A,,2 B,,2 | C,2 D,2 E,2 F,2 | G,2 A,G, F,D, E,2 | A,,2 A,,/A,/G,/F,/ =E,2 C,2 | %9
 F,2- F,/F,/E,/=D,/ G,2 A,2 | =B,2 GG, CA,E,F, | G,4 C,4 | =A,,2 F,,2 B,,2 C,2 | %13
 =D,=E, F,2 C,2- C,>_D, | E,EDC B,/F,/D,/B,,/- B,,/C,/D,/B,,/ | C,3 C, D,4 | C,8- | C,8- | C,8- | %19
 C,8- | C,2 z2[I:staff -1] G,F,[I:staff +1] z/[I:staff -1] B,3/2 |[I:staff +1] !fermata!F,,8 | %22
[M:4/4] x8 | x8 | x8 | x8 | x8 | x8 | z2 C,2 D,2 C,2 | =B,,2 =E,2 F,2 _B,,2 | =A,,2 _A,,2 G,,4 | %31
 x8 | x8 | x8 | C,C,/=D,/ =E,D,/E,/ F,/=E,,/F,,/G,,/ A,,2 | %35
 z/ F,,/G,,/A,,/ B,,2 z/ A,,/B,,/C,/ D,2 | z/ C,/=D,/=E,/ F,2- F,E,/D,/ E,2 | %37
 F,2 z F,/E,/ D,D,/C,/ B,,C,/D,/ | x8 | x8 | C,2 z2 z4 | x8 | x8 | x3[K:treble] x5 | x8 | x8 | %46
[K:bass] x8 | x8 | z4 z2 C,2 | D,2 C,2 =B,,2 =E,2 | F,2 B,,2 =A,,2 _A,,2 | %51
 G,,4 F,,F,/G,/ A,A,/B,/ | C2- C/B,/A,/_G,/ F,D,/E,/ F,F,/=G,/ | %53
 A,2- A,/_G,/F,/E,/ D,B,,/C,/ D,D,/E,/ | F,2- F,/E,/D,/C,/ B,,/C,/D,/C,/ B,,/A,,/G,,/F,,/ | %55
 E,,B,,C,A,, D,B,,E,C, | F, B,,2 E,/D,/ C,F,- F,/E,/F,/G,/ | A,/G,/F,/E,/ =D,2 E,D,=E,C, | %58
 F,F,/E,/ =D,D,/C,/ =B,,/G,,/=A,,/B,,/ C,/_A,,/_B,,/C,/ | x8 | x8 | A,,A,/G,/ F,F,/E,/ =D,2 E,G, | %62
 A,F,B,B,, C,C/B,/ _A,B,/A,/ | G, z z2 z4 | =A,,2 B,,2 E,2 z E,/F,/ | %65
 G,G,/A,/ B,B,, C,2 z C,/=D,/ | E,E,/F,/ G,G,, A,,2 z A,,/B,,/ | C,C,/=D,/ E,E,, F,,G,, A,,=A,, | %68
 G,, z z2 z4 | x8 | x8 | x8 | x8 | x8 | z2 C,2 D,2 C,2 | =B,,2 =E,2 F,2 _B,,2 | =A,,2 _A,,2 G,,4 | %77
 F,,2- F,,/F,,/G,,/A,,/ B,,2- B,,/D,/C,/B,,/ | C,8 | !fermata!F,,8 |] %80
V:5
 x8 | x8 | x8 | x8 | x8 | x8 | x8 | x8 | x8 | x8 | x8 | x8 | x8 | z4 z =E- E2 | x8 | x8 | x8 | x8 | %18
 x8 | x8 | x8 | x8 |[M:4/4] x8 | x8 | x8 | x8 | x8 | x8 | x8 | x8 | x8 | x8 | x8 | x8 | x8 | x8 | %36
 x8 | x8 | x8 | x8 | x8 | x8 | x8 | x8 | x8 | x8 | x8 | x8 | x8 | x8 | x8 | x8 | x8 | x8 | x8 | %55
 x8 | x8 | x8 | x8 | x8 | x8 | x8 | x8 | x8 | x8 | x8 | x8 | x8 | x8 | x8 | x8 | x8 | x8 | x8 | %74
 x8 | x8 | x8 | x8 | x8 | x8 |] %80
V:6
 x8 | x8 | x8 | x8 | x8 | x8 | x8 | x8 | x8 | x8 | x8 | x8 | x8 | x8 | x8 | x8 | x8 | x8 | x8 | %19
 x8 | z6 z[I:staff -1] C | x8 |[M:4/4] x8 | x8 | x8 | x8 | x8 | x8 | x8 | x8 | x8 | x8 | x8 | x8 | %34
 x8 | x8 | x8 | x8 | x8 | x8 | x8 | x8 | x8 | x3[I:staff +1][K:treble] x5 | x8 | x8 |[K:bass] x8 | %47
 x8 | x8 | x8 | x8 | x8 | x8 | x8 | x8 | x8 | x8 | x8 | x8 | x8 | x8 | x8 | x8 | x8 | x8 | x8 | %66
 x8 | x8 | x8 | x8 | x8 | x8 | x8 | x8 | x8 | x8 | x8 | x8 | x8 | x8 |] %80

